X:1
T:Aydın, SMD
T:Aydın, SMD
T:Anonymous
T:Public Domain Courtesy of the Cyber Hymnal™
C:Anonymous
Z:Public Domain
Z:Courtesy of the Cyber Hymnal™
%%score ( 1 2 ) ( 3 4 )
L:1/8
Q:1/4=130
M:6/4
K:D
V:1 treble 
V:2 treble 
V:3 bass 
V:4 bass 
V:1
 [DF]3 E D2 [DF]4 [CE]2 | D6- D4 [DE]2 | [DF]4 [DG]2 [DA]4 (GF) | [CE]6- [CE]4 z2 | %4
 [DF]3 E D2 [DF]4 [CE]2 | D4 [DE]2 (F4 ^G2) | [EA]3 [EB] [Ec]2 [Ec]4 [DB]2 | [CA]6- [CA]4 z2 | %8
 [DA]3 [DG] [DF]2 [DB]4 [DA]2 | [CG]6- [CG]4 [CG]2 | [CG]4 [CG]2 A4 [EG]2 | [DF]6- [DF]4 z2 | %12
 [DF]3 E D2 [DF]4 [CE]2 | D4 [DG]2 [GB]4 [Ac]2 | [Ad]4 ([Ac][GB]) [FA]4 C2 | D12 |] %16
V:2
 x3 E D2 x6 | D6- D4 x2 | x10 D2 | x12 | x3 E D2 x6 | D4 D6 x2 | x12 | x12 | x12 | x12 | %10
 x6 (C2 D2) x2 | x12 | x3 E D2 x6 | D4 x8 | x10 C2 | D12 |] %16
V:3
 [D,A,]3 [D,G,] [D,F,]2 [D,A,]4 [D,G,]2 | [D,F,]6- [D,F,]4 [D,G,]2 | %2
 [D,A,]4 [E,A,]2 [F,A,]4 [G,B,]2 | A,6- A,4 z2 | [D,A,]3 [D,G,] [D,F,]2 [D,A,]4 [D,G,]2 | %5
 [D,F,]4 [D,G,]2 ([F,A,]4 [B,,B,]2) | [C,A,]3 [B,,A,] [A,,A,]2 [E,A,]4 [E,^G,]2 | %7
 (A,4 G,2 [F,A,]4 [E,G,]2) | [D,F,]3 [D,G,] [D,A,]2 G,4 F,2 | A,6- [C,A,]4 [B,,A,]2 | %10
 [A,,A,]4 [A,,A,]2 B,4 [C,A,]2 | [D,A,]6- [D,A,]4 z2 | [D,A,]3 [D,G,] [D,F,]2 [D,A,]4 [^A,,G,]2 | %13
 [B,,G,]4 [B,,B,]2 [G,,D]4 [G,,E]2 | [F,,D]4 [F,,D]2 [F,,D]4 (A,G,) | [D,F,]12 |] %16
V:4
 x12 | x12 | x12 | A,6- A,4 x2 | x12 | x12 | x12 | A,6 x6 | x6 G,4 F,2 | E,4 D,2 x6 | %10
 x6 (A,,2 B,,2) x2 | x12 | x12 | x12 | x10 A,,2 | x12 |] %16

